!!!COM: Robert Schumann
!!!CNT: Deutscher
!!!TXO: Deutsche 
!!!OTL: Ich kann;s nicht fassen, nicht glauben
!!!OPR: Frauenliebe und Leben
!!!OPS: Opus 42
!!!ONM: No. 3
!!!LYR: Chamisso
!!!ENC: Brian Bice
!!!YOR: Sa2mtliche Lieder, vol. 1, C.F. Peters
!!!ODT: 1840/
!!NB: Vocal melody and text only encoded.
**kern	**silbe
*clefG2	*
*k[b-e-a-]	*
*M3/8	*
=0	=0
4r	.
{8g	{Ich
=1	=1
4g	kann's
8g	nicht
=2	=2
8g	fas-
8g	-sen,
8g	nicht
=3	=3
4cc	glau-
8g}	-ben,}
=4	=4
8r	.
8r	.
{8g	{es
=5	=5
4a-	hat
8a-	ein
=6	=6
8g	Traum
8.g	mich
16g	be-
=7	=7
[4.f#	-ru2ckt;
=8	=8
8f#]}	|}
8r	.
{8f#	{wie
=9	=9
8fn	ha2tt
8fn	er
8fn	doch
=10	=10
(fq	un-
4dd)	|
8dd	-ter
=11	=11
4dd	al-
8cc}	-len}
=12	=12
8r	.
8r	.
{8e-	{mich
=13	=13
8d	Ar-
8d	-me
8d	er-
=14	=14
8g	-ho2ht
8g	und
8g	be-
=15	=15
4.c}	-glu2ckt?}
=16	=16
8r	.
8r	.
{8e-	{Mir
=17	=17
4e-	war's,
8e-	er
=18	=18
8f	ha-
8f	-be
8f	ge-
=19	=19
4f	-spro-
8f}	-chen:}
=20	=20
8r	.
8r	.
{8f#	{"ich
=21	=21
4g	bin
8g	auf
=22	=22
(gq	e-
4b-)	|
8g	-wig
=23	=23
[4.fn	dein,"
=24	=24
4fn]}	|}
{8f#	{mir
=25	=25
4g	war's-
8g	-sich
=26	=26
8.an	tra2u-
16an	-me
8an	noch
=27	=27
4an	im-
8an}	-mer,}
=28	=28
8r	.
8r	.
{8an	{es
=29	=29
4b-	kann
8b-	ja
=30	=30
8.dd-	nim-
16dd-	-mer
8dd-	so
=31	=31
[4.cc	sein,
=32	=32
8cc]}	|}
8r	.
{8cc	{es
=33	=33
4cc	kann
8cc	ja
=34	=34
8.ff	nim-
16ff	-mer
8ee-	so
=35	=35
4.ddn}	sein.}
=36	=36
8r;	.
8r	.
{8b-	{O
=37	=37
4b-	lass
8b-	im
=38	=38
8b-	Trau-
8b-	-me
8b-	mich
=39	=39
4.ee-	ster-
=40	=40
8b-}	-ben,}
8r	.
{8b-	{ge-
=41	=41
8cc	-wie-
8cc	-get
8cc	an
=42	=42
4b-	sei-
8b-	-ner
=43	=43
[4.an	Brust,
=44	=44
4an]}	|}
{8an	{den
=45	=45
8.a-	se-
16a-	-li-
8a-	-gen
=46	=46
4ff	Tod
8ff	mich
=47	=47
4ff	schlu2r-
8ee-}	-fen}
=48	=48
8r	.
8r	.
{8ee-	{in
=49	=49
8ee-	Tra2-
8dd	-nen
8cc	un-
=50	=50
8cc	-end-
8bn	-li-
8cc	-cher
=51	=51
4.g}	Lust.}
=52	=52
8r	.
8r	.
{8g	{Ich
=53	=53
4g	kann's
8g	nicht
=54	=54
8g	fas-
8g	-sen,
8g	nicht
=55	=55
4cc	glau-
8g}	-ben}
=56	=56
8r	.
8r	.
{8g	{es
=57	=57
4a-	hat
8a-	ein
=58	=58
8g	Traum
8.g	mich
16g	be-
=59	=59
[4.f#	-ru2ckt;
=60	=60
8f#]}	|}
8r	.
{8f#	{wie
=61	=61
8fn	ha2tt'
8fn	er
8fn	doch
=62	=62
(fq	un-
4dd)	|
8dd	-ter
=63	=63
4dd	al-
8cc}	-len}
=64	=64
8r	.
8r	.
{8e-	{mich
=65	=65
8d	ar-
8d	-me
8d	er-
=66	=66
8g	-ho2ht
8g	und
8g	be-
=67	=67
4.c}	-glu2ckt?}
=76	=76
8r	.
8r	.
{8cc	{Ich
=77	=77
4cc	kann's
8cc	nicht
=78	=78
8cc	fas-
8cc	-sen,
8cc	nicht
=79	=79
4.ff	glau-
=80	=80
4ee-}	-ben,}
{8dd	{es
=81	=81
4cc	hat
8cc	ein
=82	=82
8ee-	Traum
8ee-	mich
8dd	be-
=83	=83
[4.cc	-ru2ckt.
=84	=84
4.cc]}	|}
*-	*-
